src/assets/images/coletiv.svg

<?xml version="1.0" encoding="UTF-8"?>
<svg width="24px" height="16px" viewBox="0 0 24 16" version="1.1" xmlns="http://www.w3.org/2000/svg" xmlns:xlink="http://www.w3.org/1999/xlink">
    <!-- Generator: Sketch 52.5 (67469) - http://www.bohemiancoding.com/sketch -->
    <title>coletiv</title>
    <desc>Created with Sketch.</desc>
    <g id="✔--Careers" stroke="none" stroke-width="1" fill="none" fill-rule="evenodd">
        <g id="Careers__vertical" transform="translate(-945.000000, -5141.000000)" fill="#111314">
            <g id="open-positions" transform="translate(80.000000, 4978.000000)">
                <g id="Life-here">
                    <g id="Item" transform="translate(665.000000, 155.000000)">
                        <g id="item">
                            <g id="coletiv" transform="translate(200.000000, 8.000000)">
                                <path d="M0.0550344828,0 L23.9449655,0 C23.9755862,0 24,0.024 24,0.0532 L24,15.9468 C24,15.9764 23.9751724,16 23.9449655,16 L0.0550344828,16 C0.0248275862,16 0,15.976 0,15.9468 L0,0.0532 C0,0.024 0.0248275862,0 0.0550344828,0 Z M1.6497931,1.592 C1.63448276,1.592 1.62248276,1.604 1.62248276,1.6184 L1.62248276,14.3816 C1.62248276,14.396 1.63489655,14.408 1.6502069,14.408 L22.2388966,14.408 C22.2537931,14.408 22.2662069,14.396 22.2662069,14.3816 L22.2662069,1.6184 C22.2662069,1.604 22.2537931,1.592 22.2384828,1.592 L1.6497931,1.592 Z" id="Shape"></path>
                                <path d="M15.4551724,11.2508 C13.4428966,11.2508 11.9321379,9.8308 11.9321379,8.004 C11.9321379,6.16 13.4611034,4.7232 15.4729655,4.7232 C17.4852414,4.7232 18.996,6.1424 18.996,7.9696 C18.996,9.8136 17.4670345,11.2508 15.4547586,11.2508 L15.4551724,11.2508 Z M15.4729655,9.8896 C16.6038621,9.8896 17.388,9.0416 17.388,8.004 L17.388,7.9868 C17.388,6.9488 16.586069,6.084 15.4555862,6.084 C14.3246897,6.084 13.5405517,6.932 13.5405517,7.9696 L13.5405517,7.9868 C13.5405517,9.0248 14.3433103,9.8896 15.4729655,9.8896 Z M8.39296552,11.2508 C6.45393103,11.2508 4.97917241,9.8324 4.97917241,8.004 C4.97917241,6.1492 6.45393103,4.7232 8.44675862,4.7232 C9.57972414,4.7232 10.3601379,5.04 11.061931,5.6952 L11.1177931,5.7472 C11.1384828,5.7672 11.1401379,5.7992 11.1206897,5.8208 L10.1184828,6.9168 C10.0986207,6.9388 10.0638621,6.9408 10.0411034,6.9216 L9.97613793,6.8656 C9.4617931,6.4232 8.9942069,6.2168 8.43765517,6.2168 C7.46110345,6.2168 6.7262069,6.982 6.7262069,7.9696 C6.7262069,8.9856 7.45324138,9.7576 8.43765517,9.7576 C9.05255172,9.7576 9.45558621,9.5696 10.0212414,9.0824 L10.0816552,9.0304 C10.1031724,9.0112 10.1362759,9.0124 10.1561379,9.032 L11.1645517,9.9976 C11.1852414,10.0176 11.186069,10.0508 11.1653793,10.072 L11.1107586,10.128 C10.3502069,10.8988 9.56317241,11.2508 8.39213793,11.2508 L8.39296552,11.2508 Z" id="Shape"></path>
                            </g>
                        </g>
                    </g>
                </g>
            </g>
        </g>
    </g>
</svg>

<svg width="24" height="16" xmlns="http://www.w3.org/2000/svg"><g fill="#111314" fill-rule="evenodd"><path d="M.055 0h23.89c.03 0 .055.024.055.053v15.894c0 .03-.025.053-.055.053H.055A.054.054 0 0 1 0 15.947V.053C0 .024.025 0 .055 0zM1.65 1.592a.027.027 0 0 0-.028.026v12.764c0 .014.013.026.028.026H22.24a.027.027 0 0 0 .027-.026V1.618a.027.027 0 0 0-.028-.026H1.65z"/><path d="M15.455 11.25c-2.012 0-3.523-1.42-3.523-3.246 0-1.844 1.53-3.28 3.541-3.28 2.012 0 3.523 1.418 3.523 3.246 0 1.844-1.529 3.28-3.541 3.28zm.018-1.36c1.13 0 1.915-.848 1.915-1.886v-.017c0-1.038-.802-1.903-1.932-1.903-1.131 0-1.915.848-1.915 1.886v.017c0 1.038.802 1.903 1.932 1.903zm-7.08 1.36c-1.94 0-3.414-1.418-3.414-3.246 0-1.855 1.475-3.28 3.468-3.28 1.133 0 1.913.316 2.615.971l.056.052c.02.02.022.052.003.074l-1.003 1.096a.056.056 0 0 1-.077.005l-.065-.056c-.514-.443-.982-.65-1.538-.65-.977 0-1.712.766-1.712 1.754 0 1.016.727 1.788 1.712 1.788.615 0 1.018-.188 1.583-.676l.06-.052a.055.055 0 0 1 .075.002l1.009.966c.02.02.021.053 0 .074l-.054.056c-.76.77-1.548 1.123-2.719 1.123h.001z"/></g></svg>
